X:160
T:Cap. Cooper's Ramble
M:9/8
L:1/8
B:Thompson's Compleat Collection of 200 Favourite Country Dances, vol. 3 (London, 1773)
Z:Transcribed and edited by Flynn Titford-Mock, 2007
Z:abc's:AK/Fiddler's Companion
K:C
c>dc e2d cGE | c>dc e2c dBG | c>dc e2d cGE | FEF DcB c3 :|
|: g>ag gec dBG | g>ag gec | fga | g>ag gec dBG | FEF DcB c3 :|

